!!!!SEGMENT: pl-kk--kk-i-7--053-003_goudimel-claude--missa-de-sanctis-martyribus-sanctus.krn
!!!cenid: 16xx:877
!!!COM: Goudimel, Claude
!!!COM-rismid: pe387526
!!!CDT: ~1514-1572/08
!!!CNT: French
!!!OPR: Missa de Sanctis Martyribus
!!!OTL: Sanctus
!!!OMV: 003
!!!PDT:
!!!AGN: Sacred; Mass
!!!SMS-siglum: PL-Kk
!!!SMS-shelfmark: Kk.I.7
!!!SMS-shelfwork: 053-003 M
!!!SMS-variant:
!!!SMS-altvar:
!!!NIFC-rismid: 300258130
!!!URL-scan: http://repozytorium.nifc.pl/skany/pl-kk-nut--i-7
!!!ONB-nifc: UWAGA: C (skan 0050-0051, s.93-95), A (0134-0135, s.88-90), T (0210-0211, s.83-85), B (0298-0299, s.82-84). Części Mszy: 1. Kyrie, 2. Et in terra, 3. Sanctus, 4. Agnus Dei. "Agnus II" rozpisane na 5 głosów. Głos dodatkowy rozpisany w księdze C na stronie 95.
**kern	**text	**kern	**text	**kern	**text	**kern	**text
*part4	*part4	*part3	*part3	*part2	*part2	*part1	*part1
*staff4	*staff4	*staff3	*staff3	*staff2	*staff2	*staff1	*staff1
*group1	*	*group1	*	*group1	*	*group1	*
*>[A,B,C,D,C]	*	*>[A,B,C,D,C]	*	*>[A,B,C,D,C]	*	*>[A,B,C,D,C]	*
*>A	*	*>A	*	*>A	*	*>A	*
*I"BASSVS.	*	*I"TENOR.	*	*I"ALTVS.	*	*I"CANTVS.	*
*I'B	*	*I'T	*	*I'A	*	*I'S	*
*clefF4	*	*clefC4	*	*clefC3	*	*clefC1	*
*k[b-]	*	*k[b-]	*	*k[b-]	*	*k[b-]	*
*g:	*	*g:	*	*g:	*	*g:	*
*M2/1	*	*M2/1	*	*M2/1	*	*M2/1	*
*met(C|)	*	*met(C|)	*	*met(C|)	*	*met(C|)	*
=1-	=1-	=1-	=1-	=1-	=1-	=1-	=1-
!LO:TX:t=P:problem:przy kluczu BB- B-	!	!	!	!LO:TX:t=P:problem:kreska pseudotaktowa	!	!	!
0r	.	00r	.	1r	.	0g	San-
.	.	.	.	2.G/	San-	.	.
.	.	.	.	4A/	.	.	.
=2-	=2-	=2-	=2-	=2-	=2-	=2-	=2-
2rC	.	.	.	4B-/	.	2.fn/	.
.	.	.	.	4c/	.	.	.
*2\right	*	*	*	*	*	*	*
2.D\	San-	.	.	1d	.	.	.
.	.	.	.	.	.	4e/	.
.	.	.	.	.	.	4f/	.
4E\	.	.	.	.	.	4g/	.
!LO:TX:t=P:problem:kreska pseudotaktowa	!	!	!	!LO:TX:t=P:problem:kreska pseudotaktowa	!	!	!
*	*	*	*	*	*	*2\right	*
2F\	.	.	.	2c/	.	2.a\	.
=3-	=3-	=3-	=3-	=3-	=3-	=3-	=3-
!	!	!LO:TX:t=P:problem:kreska pseudotaktowa	!	!	!	!	!
2G\	.	0r	.	2B-/	.	.	.
.	.	.	.	.	.	4g/	.
2E\	.	.	.	4A/	.	1g	.
.	.	.	.	4G/	.	.	.
*	*	*	*	*lig	*	*	*
1D	.	.	.	1A	.	.	.
!	!	!	!	!	!	!LO:TX:t=P:problem:kreska pseudotaktowa	!
.	.	.	.	.	.	2f/	.
=4-	=4-	=4-	=4-	=4-	=4-	=4-	=4-
!	!	!	!	!LO:TX:t=P:problem:kreska pseudotaktowa	!	!	!
1GG,<	-ctus	2.D/	San-	1B-	.	2g/	-ctus
*	*	*	*	*	*	*	*ij
.	.	.	.	.	.	2.d/	San-
.	.	4E/	.	.	.	.	.
*	*	*	*	*Xlig	*	*	*
2.D\	San-	4F/	.	2A,</	-ctus	.	.
.	.	4G/	.	.	.	4e/	.
*	*	*	*	*2\right	*	*	*
.	.	1A	.	2d\	San-	1f/	.
4E\	.	.	.	.	.	.	.
=5-	=5-	=5-	=5-	=5-	=5-	=5-	=5-
2F\	.	.	.	2c/	.	.	.
2G\	.	1G	.	2.B-/	.	2e/	.
!LO:TX:t=P:problem:kreska pseudotaktowa	!	!	!	!	!	!LO:TX:t=P:problem:kreska pseudotaktowa	!
1D	-ct(us)	.	.	.	.	0d	-ctus
*	*	*	*	*	*	*	*Xij
.	.	.	.	8A/L	.	.	.
.	.	.	.	8G/J	.	.	.
!	!	!LO:TX:t=P:problem:kreska pseudotaktowa	!	!	!	!	!
.	.	2F/	ct(us)	2A/	.	.	.
=6-	=6-	=6-	=6-	=6-	=6-	=6-	=6-
2rC	.	4G/	San-	2B-/	.	.	.
.	.	4A/	.	.	.	.	.
2.GG/	San-	4B-/	.	2G/	.	.	.
.	.	4c/	.	.	.	.	.
.	.	1.d	.	1B-	.	2re	.
4AA/	.	.	.	.	.	.	.
4BB-/	.	.	.	.	.	4d/	San-
4C/	.	.	.	.	.	4e/	.
=7-	=7-	=7-	=7-	=7-	=7-	=7-	=7-
!	!	!	!	!LO:TX:t=P:problem:kreska pseudotaktowa	!	!	!
4D\	.	.	.	1A	-ctus	4f/	.
4E\	.	.	.	.	.	4g/	.
2F\	.	4c\	.	.	.	1a	.
.	.	4B-\	.	.	.	.	.
*	*	*2\right	*	*	*	*	*
!	!	!	!	!LO:TX:t=P:problem:kreska pseudotaktowa	!	!	!
2C/	.	2c\	.	1r	.	.	.
2E\	.	4B-\	.	.	.	1g	.
.	.	8A\L	.	.	.	.	.
.	.	8G\J	.	.	.	.	.
=8-	=8-	=8-	=8-	=8-	=8-	=8-	=8-
1D	.	1A	.	2rA	.	.	.
!	!	!	!	!	!	!LO:TX:t=P:problem:kreska pseudotaktowa	!
.	.	.	.	1d	Do-	2f/	.
!	!	!LO:TX:t=P:problem:kreska pseudotaktowa	!	!	!	!LO:TX:t=P:problem:kreska pseudotaktowa	!
2GG/	.	1G	-ctus	.	.	1g	-ctus
!	!	!	!	!LO:TX:t=P:problem:kreska pseudotaktowa	!	!	!
2BB-/	.	.	.	2d\	-mi-	.	.
=9-	=9-	=9-	=9-	=9-	=9-	=9-	=9-
!	!	!	!	!	!	!LO:TX:t=P:problem:kreska pseudotaktowa	!
2AA/	.	2r	.	2c/	-n(us)	1rdd	.
2GG/	.	1d	Do-	2B-/	De-	.	.
!LO:TX:t=P:problem:kreska pseudotaktowa	!	!	!	!	!	!	!
1D	-ctus	.	.	2A/	-us	1a	Do-
.	.	2d\	-mi-	2f\	Sab-	.	.
=10-	=10-	=10-	=10-	=10-	=10-	=10-	=10-
0r	.	2c\	-n(us)	2e\	.	2a\	-mi-
.	.	2B-\	DE-	1d	.	2g\	-n(us)
.	.	2A\	-(us)	.	.	2f/	DE-
!	!	!LO:TX:t=P:problem:kreska pseudotaktowa	!	!	!	!LO:TX:t=P:problem:kreska pseudotaktowa	!
.	.	2A\	Sab-	2c\	-ba-	2e/	-us
=11-	=11-	=11-	=11-	=11-	=11-	=11-	=11-
!	!	!	!	!LO:TX:t=P:problem:kreska pseudotaktowa	!	!	!
2r	.	4B-\	-ba-	1d	-oth	4g/	Sab-
.	.	4A\	.	.	.	4f/	.
1G	Do-	4B-\	.	.	.	4g/	.
.	.	4c\	.	.	.	4a/	.
!	!	!LO:TX:t=P:problem:kreska pseudotaktowa	!	!	!	!	!
.	.	1d	-oth.	2r	.	2.b-\	.
2G\	-mi-	.	.	1d	Sab-	.	.
.	.	.	.	.	.	8a\L	.
.	.	.	.	.	.	8b-\J	.
=12-	=12-	=12-	=12-	=12-	=12-	=12-	=12-
2F\	-n(us)	1re	.	.	.	2a\	-ba-
2E\	DE-	.	.	2G/	.	2g\	-oth
!	!	!	!	!	!	!LO:TX:t=P:problem:kreska pseudotaktowa	!
1.D	-US	2r	.	2.B-/	.	1f	.
.	.	1d	Do-	.	.	.	.
.	.	.	.	8A/L	-ba-	.	.
.	.	.	.	8G/J	.	.	.
=13-	=13-	=13-	=13-	=13-	=13-	=13-	=13-
!	!	!	!	!LO:TX:t=P:problem:kreska pseudotaktowa	!	!	!
.	.	.	.	1F	-oth	1a	Do-
4C/	Sab-	2d\	-mi-	.	.	.	.
4BB-/	.	.	.	.	.	.	.
!	!	!	!	!LO:LB:g=original	!	!	!
2AA/	.	2c\	-n(us)	1rg	.	2a\	-mi-
2BB-/	.	2B-\	DE-	.	.	1g	-n(us)
=14-	=14-	=14-	=14-	=14-	=14-	=14-	=14-
!	!	!LO:TX:t=P:problem:kreska pseudotaktowa	!	!	!	!	!
2C/	.	1A	-(us)	2r	.	.	.
!	!	!	!	!	!	!LO:TX:t=P:problem:kreska pseudotaktowa	!
2D/	-ba-	.	.	1d	Do-	2f/	DE-
!LO:TX:t=P:problem:kreska pseudotaktowa	!	!	!	!	!	!LO:LB:g=original	!
1GG	-oth.	2.B-\	Sab-	.	.	2g\	-US
.	.	.	.	2d\	-mi-	2b-\	Sab-
.	.	4A/	.	.	.	.	.
!LO:LB:g=original	!	!	!	!	!	!	!
=15-	=15-	=15-	=15-	=15-	=15-	=15-	=15-
!LO:TX:t=P:problem:kreska pseudotaktowa	!	!	!	!	!	!	!
1rA	.	2F/	.	2c\	-n(us)	2a\	.
.	.	2G/	.	2B-/	DE-	2g\	.
!	!	!	!	!LO:TX:t=P:problem:kreska pseudotaktowa	!	!	!
2r	.	2.D/	.	1A	-(us)	4f/	.
.	.	.	.	.	.	4e/	.
*	*ij	*	*	*	*	*	*
1D/	Do-	.	.	.	.	4f/	.
!	!	!LO:TX:t=P:problem:kreska pseudotaktowa	!	!	!	!	!
!	!	!LO:SIC:v:t=custos F	!	!	!	!	!
.	.	4E/	.	.	.	4g/	-ba-
!	!	!LO:LB:g=original	!	!	!	!	!
=16-	=16-	=16-	=16-	=16-	=16-	=16-	=16-
!	!	!	!	!	!	!LO:TX:t=P:problem:kreska pseudotaktowa	!
.	.	4F/	.	2.f\	Sab-	1a	-oth
.	.	4G/	.	.	.	.	.
2D/	-mi-	4A/	.	.	.	.	.
!	!	!	!	!LO:TX:t=P:problem:♭ above	!	!	!
.	.	4F/	.	8e-X\L	.	.	.
.	.	.	.	8d\J	.	.	.
2C/	-n(us)	4G/	.	2e-X\	.	2r	.
.	.	4A/	.	.	.	.	.
2BB-/	DE-	2.B-\	.	2d\	-ba-	1dd	Do-
=17-	=17-	=17-	=17-	=17-	=17-	=17-	=17-
!	!	!	!	!LO:TX:t=P:problem:kreska pseudotaktowa	!	!	!
2GG/	-US	.	.	1B-	-oth.	.	.
.	.	4A/	.	.	.	.	.
2BB-/	Sab-	1G	.	.	.	2dd\	-mi-
2.AA/	.	.	.	1r	.	1cc	-n(us)
.	.	2F/	-ba-	.	.	.	.
4AA/	-ba-	.	.	.	.	.	.
=18-	=18-	=18-	=18-	=18-	=18-	=18-	=18-
!LO:TX:t=P:problem:kreska pseudotaktowa	!	!LO:TX:t=P:problem:kreska pseudotaktowa	!	!	!	!	!
0GG	-oth.	0G	-oth.	2r	.	1.b-	DE-
*	*Xij	*	*	*	*	*	*
.	.	.	.	1d	Do-	.	.
.	.	.	.	2d\	-mi-	4a\	-US
!	!	!	!	!	!	!LO:TX:t=P:problem:kreska pseudotaktowa	!
.	.	.	.	.	.	4g\	.
=19-	=19-	=19-	=19-	=19-	=19-	=19-	=19-
0r	.	2r	.	2c\	-n(us)	2a\	Sab.-
.	.	2.d\	Do-	2B-/	DE-	2g\	.
.	.	.	.	2A/	-(us)	2f/	.
.	.	4d\	-mi-	.	.	.	.
!	!	!LO:TX:t=P:problem:kreska pseudotaktowa	!	!	!	!	!
.	.	2c\	-n(us)	2A/	Sab-	2e/	.
=20-	=20-	=20-	=20-	=20-	=20-	=20-	=20-
!LO:TX:t=P:problem:kreska pseudotaktowa	!	!	!	!	!	!	!
1r	.	1B-	DE-	4d\	.	4f/	.
.	.	.	.	4c\	.	4e/	.
.	.	.	.	4d\	.	4f/	.
.	.	.	.	4eny\	.	4g/	.
2r	.	2A\	-(us)	2f\	.	2a\	.
1G\	Do-	2d\	Sa-	2g\	-ba-	1b-	.
=21-	=21-	=21-	=21-	=21-	=21-	=21-	=21-
!	!	!	!	!LO:TX:t=P:problem:kreska pseudotaktowa	!	!	!
.	.	4B-\	.	1d	-oth.	.	.
.	.	4c\	.	.	.	.	.
!LO:TX:t=P:problem:kreska pseudotaktowa	!	!	!	!	!	!	!
2G\	-mi-	4d\	.	.	.	4a\	.
!	!	!LO:TX:t=P:problem:kreska pseudotaktowa	!	!	!	!LO:TX:t=P:problem:kreska pseudotaktowa	!
.	.	4B-\	.	.	.	4g\	.
2F\	-n(us)	4c\	.	1rg	.	2a\	.
.	.	4B-\	.	.	.	.	.
2E\	De-	4A/	.	.	.	1g	.
.	.	4G/	.	.	.	.	.
=22-	=22-	=22-	=22-	=22-	=22-	=22-	=22-
!LO:TX:t=P:problem:kreska pseudotaktowa	!	!	!	!	!	!	!
1D	-us	1A	-ba-	0d	Sab-	.	.
.	.	.	.	.	.	2f/	.
1GG	Sab-	[1Gl;	-oth.	.	.	2.g/	.
.	.	.	.	.	.	4f/	.
=23-	=23-	=23-	=23-	=23-	=23-	=23-	=23-
!	!	!	!	!	!	!LO:TX:t=P:problem:♭ above	!
2.C/	.	0G]	.	2.c\	.	1e-X	-ba-
4C/	-ba-	.	.	4c\	-ba-	.	.
!LO:SIC:v:t=custos G	!	!	!	!	!	!	!
1GGl;	-oth	.	.	1Bnl;	-oth.	1dl;	-oth.
!LO:PB:g=original	!	!	!	!LO:LB:g=original	!	!LO:LB:g=original	!
=24||	=24||	=24||	=24||	=24||	=24||	=24||	=24||
*>B	*	*>B	*	*>B	*	*>B	*
*M2/1	*	*M2/1	*	*M2/1	*	*M2/1	*
*met(C|)	*	*met(C|)	*	*met(C|)	*	*met(C|)	*
!LO:TX:a:t=à 2.	!	!LO:TX:t=P:problem:kreska pseudotaktowa	!	!LO:TX:a:t=Pleni sunt Tacet	!	!LO:TX:a:t=Pleni sunt Tacet	!
1G	Ple-	0r	.	0ryy	.	0ryy	.
2F\	-ni	.	.	.	.	.	.
2.G\	sunt	.	.	.	.	.	.
=25-	=25-	=25-	=25-	=25-	=25-	=25-	=25-
.	.	1d	Ple-	0ryy	.	0ryy	.
4F\	.	.	.	.	.	.	.
4F\	.	.	.	.	.	.	.
8E\L	.	.	.	.	.	.	.
!LO:TX:t=P:problem:kreska pseudotaktowa	!	!	!	!	!	!	!
8D\J	.	.	.	.	.	.	.
2E\	.	2c\	-ni	.	.	.	.
4D/	Cae-	1d	sunt	.	.	.	.
4E/	.	.	.	.	.	.	.
=26-	=26-	=26-	=26-	=26-	=26-	=26-	=26-
4F\	.	.	.	0ryy	.	0ryy	.
!LO:TX:t=P:problem:kreska pseudotaktowa	!	!	!	!	!	!	!
4G\	.	.	.	.	.	.	.
1A	.	4c\	cae-	.	.	.	.
!	!	!LO:TX:t=P:problem:kreska pseudotaktowa	!	!	!	!	!
.	.	4B-\	.	.	.	.	.
.	.	2c\	.	.	.	.	.
1G	.	2B-\	.	.	.	.	.
=27-	=27-	=27-	=27-	=27-	=27-	=27-	=27-
.	.	2A\	-li	0ryy	.	0ryy	.
!	!	!LO:TX:t=P:problem:kreska pseudotaktowa	!	!	!	!	!
2F\	.	2A\	et	.	.	.	.
2G,\	-li	4B-\	ter-	.	.	.	.
.	.	4A\	.	.	.	.	.
!LO:TX:t=P:problem:kreska pseudotaktowa	!	!	!	!	!	!	!
2GG/	et	4B-\	.	.	.	.	.
.	.	4c\	.	.	.	.	.
=28-	=28-	=28-	=28-	=28-	=28-	=28-	=28-
4BB-/	ter-	2.d\	.	0ryy	.	0ryy	.
4C/	.	.	.	.	.	.	.
4D/	.	.	.	.	.	.	.
4E/	.	8c\L	.	.	.	.	.
.	.	8B-\J	.	.	.	.	.
2.F\	.	4A\	.	.	.	.	.
.	.	4B-\	.	.	.	.	.
.	.	2.c\	.	.	.	.	.
8E\L	.	.	.	.	.	.	.
!LO:TX:t=P:problem:kreska pseudotaktowa	!	!	!	!	!	!	!
8D\J	.	.	.	.	.	.	.
=29-	=29-	=29-	=29-	=29-	=29-	=29-	=29-
4C/	.	.	.	0ryy	.	0ryy	.
4D/	.	4B-\	.	.	.	.	.
2.E-X\	.	4G/	.	.	.	.	.
!	!	!LO:TX:t=P:problem:kreska pseudotaktowa	!	!	!	!	!
.	.	4A/	.	.	.	.	.
!	!	!LO:LB:g=original	!	!	!	!	!
.	.	2B-\	.	.	.	.	.
4D/	.	.	.	.	.	.	.
4C/	.	1A	.	.	.	.	.
!LO:TX:t=P:problem:kreska pseudotaktowa	!	!	!	!	!	!	!
4BB-/	.	.	.	.	.	.	.
=30-	=30-	=30-	=30-	=30-	=30-	=30-	=30-
4C/	.	.	.	0ryy	.	0ryy	.
4BB-/	.	.	.	.	.	.	.
4BB-/	.	1G	.	.	.	.	.
8AA/L	.	.	.	.	.	.	.
8GG/J	.	.	.	.	.	.	.
1AA	.	.	.	.	.	.	.
.	.	2F/	.	.	.	.	.
=31-	=31-	=31-	=31-	=31-	=31-	=31-	=31-
!LO:TX:t=P:problem:kreska pseudotaktowa	!	!LO:TX:t=P:problem:kreska pseudotaktowa	!	!	!	!	!
0GG	-ra	1G	-ra	0ryy	.	0ryy	.
.	.	2r	.	.	.	.	.
.	.	1d	glo-	.	.	.	.
=32-	=32-	=32-	=32-	=32-	=32-	=32-	=32-
2r	.	.	.	0ryy	.	0ryy	.
1G	glo-	2d\	-ri-	.	.	.	.
.	.	1.d	-a	.	.	.	.
2G\	-ri-	.	.	.	.	.	.
=33-	=33-	=33-	=33-	=33-	=33-	=33-	=33-
!LO:TX:t=P:problem:kreska pseudotaktowa	!	!	!	!	!	!	!
1G	-a	.	.	0ryy	.	0ryy	.
.	.	4c\	.	.	.	.	.
!	!	!LO:TX:t=P:problem:kreska pseudotaktowa	!	!	!	!	!
.	.	4B-\	.	.	.	.	.
2.F\	glo-	2d\	.	.	.	.	.
.	.	1c	.	.	.	.	.
!LO:TX:t=P:problem:kreska pseudotaktowa	!	!	!	!	!	!	!
!LO:SIC:v:t=custos A	!	!	!	!	!	!	!
4G\	.	.	.	.	.	.	.
!LO:LB:g=original	!	!	!	!	!	!	!
=34-	=34-	=34-	=34-	=34-	=34-	=34-	=34-
2A\	-ri-	.	.	0ryy	.	0ryy	.
2.G\	-a	4B-\	.	.	.	.	.
.	.	4A\	.	.	.	.	.
.	.	1B-	tu-	.	.	.	.
4F\	.	.	.	.	.	.	.
4D\	.	.	.	.	.	.	.
!LO:TX:t=P:problem:kreska pseudotaktowa	!	!	!	!	!	!	!
4Eny\	.	.	.	.	.	.	.
=35-	=35-	=35-	=35-	=35-	=35-	=35-	=35-
!	!	!LO:TX:t=P:problem:kreska pseudotaktowa	!	!	!	!	!
4F\	.	1A	-a	0ryy	.	0ryy	.
4E\	.	.	.	.	.	.	.
4D\	.	.	.	.	.	.	.
4C/	.	.	.	.	.	.	.
2BB-/	tu-	2rG	.	.	.	.	.
2C/	.	1A	glo-	.	.	.	.
=36-	=36-	=36-	=36-	=36-	=36-	=36-	=36-
!LO:TX:t=P:problem:kreska pseudotaktowa	!	!	!	!	!	!	!
1D	-a	.	.	0ryy	.	0ryy	.
.	.	2A\	-ri-	.	.	.	.
!	!	!LO:TX:t=P:problem:kreska pseudotaktowa	!	!	!	!	!
2rC	.	1A	-a	.	.	.	.
1D	glo-	.	.	.	.	.	.
=37-	=37-	=37-	=37-	=37-	=37-	=37-	=37-
.	.	2.F/	glo-	0ryy	.	0ryy	.
!LO:TX:t=P:problem:kreska pseudotaktowa	!	!	!	!	!	!	!
2D\	-ri-	.	.	.	.	.	.
.	.	4G/	.	.	.	.	.
2D\	-a	4A/	.	.	.	.	.
.	.	4F/	.	.	.	.	.
4C/	.	2B-\	.	.	.	.	.
!LO:TX:t=P:problem:kreska pseudotaktowa	!	!	!	!	!	!	!
4BB-/	.	.	.	.	.	.	.
=38-	=38-	=38-	=38-	=38-	=38-	=38-	=38-
2C/	tu-	2A\	.	0ryy	.	0ryy	.
2D/	.	1B-	.	.	.	.	.
1E-X	.	.	.	.	.	.	.
.	.	4A/	.	.	.	.	.
!	!	!LO:TX:t=P:problem:kreska pseudotaktowa	!	!	!	!	!
.	.	4G/	.	.	.	.	.
=39-	=39-	=39-	=39-	=39-	=39-	=39-	=39-
2D,\	-a	2F/	.	0ryy	.	0ryy	.
4BB-/	glo-	4D/	.	.	.	.	.
!LO:TX:t=P:problem:kreska pseudotaktowa	!	!	!	!	!	!	!
4C/	.	4E/	.	.	.	.	.
4D\	.	4F/	.	.	.	.	.
4Eny\	.	4G/	.	.	.	.	.
4F\	.	4A/	.	.	.	.	.
!LO:TX:t=P:problem:kreska pseudotaktowa	!	!LO:TX:t=P:problem:kreska pseudotaktowa	!	!	!	!	!
4D\	.	4B-/	.	.	.	.	.
=40-	=40-	=40-	=40-	=40-	=40-	=40-	=40-
4E\	.	4c\	.	0ryy	.	0ryy	.
4D\	.	4B-\	-ri-	.	.	.	.
4D/	.	1B-	-a	.	.	.	.
8C/L	-ri-	.	.	.	.	.	.
8BB-/J	.	.	.	.	.	.	.
2C/	-a	.	.	.	.	.	.
1D	tu-	4A/	tu-	.	.	.	.
.	.	4G/	.	.	.	.	.
=41-	=41-	=41-	=41-	=41-	=41-	=41-	=41-
.	.	2F#X/	.	0ryy	.	0ryy	.
4C/	.	1G	.	.	.	.	.
4BB-/	.	.	.	.	.	.	.
1AA	.	.	.	.	.	.	.
.	.	2F#/	.	.	.	.	.
=42-	=42-	=42-	=42-	=42-	=42-	=42-	=42-
0GGl;	-a	0Gl;	-a	0ryy	.	0ryy	.
!LO:LB:g=original	!	!LO:LB:g=original	!	!	!	!	!
=43||	=43||	=43||	=43||	=43||	=43||	=43||	=43||
*>C	*	*>C	*	*>C	*	*>C	*
*M2/1	*	*M2/1	*	*M2/1	*	*M2/1	*
*met(C|)	*	*met(C|)	*	*met(C|)	*	*met(C|)	*
!LO:TX:t=P:problem:kreska pseudotaktowa	!	!	!	!LO:TX:t=P:problem:kreska pseudotaktowa	!	!LO:TX:t=P:problem:kreska pseudotaktowa	!
0r	.	0G	O-	00r	.	1rdd	.
.	.	.	.	.	.	0d	O-
=44-	=44-	=44-	=44-	=44-	=44-	=44-	=44-
0D	O-	1B-	-san-	.	.	.	.
.	.	2A\	-na	.	.	1f	-san-
.	.	1d	in	.	.	.	.
=45-	=45-	=45-	=45-	=45-	=45-	=45-	=45-
1E-X	-san-	.	.	1G	O-	1g	-na
!	!	!LO:TX:t=P:problem:kreska pseudotaktowa	!	!	!	!	!
.	.	2c\	ex-	.	.	.	.
!LO:TX:t=P:problem:kreska pseudotaktowa	!	!	!	!	!	!	!
1D	-na	1d	-cel-	1B-	-san-	2.f/	in
.	.	.	.	.	.	8e/L	ex-
.	.	.	.	.	.	8d/J	.
=46-	=46-	=46-	=46-	=46-	=46-	=46-	=46-
2r	.	2c\	.	2A/	-na	2e/	-cel-
*	*ij	*	*	*	*	*	*
2D\	O-	1B-	.	1d	in	2f/	.
*	*	*	*	*	*	*lig	*
1Eny	-san-	.	.	.	.	1g	.
!	!	!	!	!LO:TX:t=P:problem:kreska pseudotaktowa	!	!	!
.	.	4A/	.	2c\	ex-	.	.
.	.	4G/	.	.	.	.	.
=47-	=47-	=47-	=47-	=47-	=47-	=47-	=47-
2D\	-na	2A\	.	1d	-cel-	1.f	.
*	*Xij	*	*	*	*	*	*
2BB-/	in	2B-\	.	.	.	.	.
1C	ex-	4A/	.	2.c/	.	.	.
.	.	4G/	.	.	.	.	.
*	*	*	*	*	*	*Xlig	*
.	.	1G	.	.	.	2e/	.
.	.	.	.	4B-/	.	.	.
=48-	=48-	=48-	=48-	=48-	=48-	=48-	=48-
!	!	!	!	!	!	!LO:TX:t=P:problem:kreska pseudotaktowa	!
1D	-cel-	.	.	1A	.	1d	-sis.
.	.	2F/	.	.	.	.	.
!LO:TX:t=P:problem:kreska pseudotaktowa	!	!LO:TX:t=P:problem:kreska pseudotaktowa	!	!	!	!	!
0GG	-ſis	0G	-sis.	2G,</	-ſis	2r	.
*	*	*	*	*	*ij	*	*
.	.	.	.	2B-/	O-	2dd\	O-
=49-	=49-	=49-	=49-	=49-	=49-	=49-	=49-
.	.	.	.	2B-/	-san-	2dd\	-ſan-
!	!	!	!	!	!	!LO:TX:t=P:problem:kreska pseudotaktowa	!
.	.	.	.	2B-/	-na	2dd\	-na
2r	.	0r	.	2A/	in	2cc\	in
2G\	O-	.	.	4G/	ex-	1b-	ex-
!	!	!	!	!LO:TX:t=P:problem:kreska pseudotaktowa	!	!	!
.	.	.	.	4A/	.	.	.
=50-	=50-	=50-	=50-	=50-	=50-	=50-	=50-
2G\	-san-	.	.	4B-/	.	.	.
.	.	.	.	4c/	.	.	.
!LO:TX:t=P:problem:kreska pseudotaktowa	!	!	!	!	!	!	!
2G\	-na	.	.	4d/	.	4a\	-cel-
.	.	.	.	4e/	.	4g\	.
2F\	in	2rc	.	1f	.	2a\	.
*	*	*	*ij	*	*	*	*
2.BB-/	ex-	2d\	O-	.	.	1b-	.
=51-	=51-	=51-	=51-	=51-	=51-	=51-	=51-
.	.	2d\	-san-	1.f	-cel-	.	.
4C/	.	.	.	.	.	.	.
!	!	!LO:TX:t=P:problem:kreska pseudotaktowa	!	!	!	!	!
4D/	.	2d\	-na	.	.	1a	.
!LO:TX:t=P:problem:kreska pseudotaktowa	!	!	!	!	!	!	!
4E/	.	.	.	.	.	.	.
2F\	.	2c\	in	.	.	.	.
!	!	!	!	!LO:TX:t=P:problem:kreska pseudotaktowa	!	!	!
2G\	-cel-	1B-	ex-	2d\	-ſis	1g	.
*	*	*	*	*	*Xij	*	*
=52-	=52-	=52-	=52-	=52-	=52-	=52-	=52-
1.D	.	.	.	2r	.	.	.
.	.	4A/	-cel-	2d\	O-	4f/	.
!	!	!	!	!	!	!LO:TX:t=P:problem:kreska pseudotaktowa	!
.	.	4G/	.	.	.	4e/	.
.	.	2A\	.	2d\	-ſan-	1f	.
!LO:TX:t=P:problem:kreska pseudotaktowa	!	!	!	!	!	!	!
2BB-/	.	4B-\	.	2d\	-na	.	.
.	.	4A\	.	.	.	.	.
=53-	=53-	=53-	=53-	=53-	=53-	=53-	=53-
2C/	.	4G/	.	2c/	in	2e/	.
.	.	4F/	.	.	.	.	.
!	!	!	!	!LO:TX:t=P:problem:kreska pseudotaktowa	!	!	!
2D/	.	4F/	.	2B-/	ex-	1d	.
.	.	8E/L	.	.	.	.	.
.	.	8D/J	.	.	.	.	.
!LO:TX:t=P:problem:kreska pseudotaktowa	!	!	!	!	!	!	!
1AA	-sis.	1E	.	1A	-cel-	.	.
.	.	.	.	.	.	2c#X/	.
=54-	=54-	=54-	=54-	=54-	=54-	=54-	=54-
!	!	!LO:TX:t=P:problem:kreska pseudotaktowa	!	!	!	!LO:TX:t=P:problem:kreska pseudotaktowa	!
2rC	.	1D,<	-sis.	4A/	.	0d	-sis.
*	*	*	*Xij	*	*	*	*
.	.	.	.	4G/	.	.	.
2D\	O-	.	.	4F/	.	.	.
.	.	.	.	4E/	.	.	.
!	!	!	!	!LO:TX:t=P:problem:kreska pseudotaktowa	!	!	!
2D\	-san-	2A\	O-	1F	-ſis.	.	.
!LO:TX:t=P:problem:kreska pseudotaktowa	!	!	!	!	!	!	!
2D\	-na	2A\	-san-	.	.	.	.
=55-	=55-	=55-	=55-	=55-	=55-	=55-	=55-
2C/	in	2A/	-na	2r	.	0r	.
*	*	*	*	*	*ij	*	*
1BB-	ex-	2G/	in	2d\	O-	.	.
.	.	2F/	ex-	2d\	-ſan-	.	.
4AA/	.	1G	-cel-	2d\	-na	.	.
!LO:TX:t=P:problem:kreska pseudotaktowa	!	!	!	!	!	!	!
!LO:SIC:v:t=custos AA	!	!	!	!	!	!	!
4GG/	.	.	.	.	.	.	.
!LO:LB:g=original	!	!	!	!	!	!	!
=56-	=56-	=56-	=56-	=56-	=56-	=56-	=56-
!	!	!	!	!	!	!LO:TX:t=P:problem:kreska pseudotaktowa	!
1AA	-cel-	.	.	2.c/	in	1r	.
!	!	!LO:TX:t=P:problem:kreska pseudotaktowa	!	!	!	!	!
!	!	!LO:SIC:v:t=custos G	!	!	!	!	!
.	.	2F/	.	.	.	.	.
.	.	.	.	4A/	ex-	.	.
!	!	!LO:LB:g=original	!	!	!	!	!
4GG/	.	2G/	.	1B-	-cel-	2r	.
4AA/	.	.	.	.	.	.	.
4BB-/	.	4D/	.	.	.	2dd\	O-
4C/	.	4E/	.	.	.	.	.
=57-	=57-	=57-	=57-	=57-	=57-	=57-	=57-
!	!	!	!	!LO:TX:t=P:problem:kreska pseudotaktowa	!	!	!
4D\	.	4F/	.	1A,<	-ſis.	2dd\	-ſan-
*	*	*	*	*	*Xij	*	*
4E\	.	4G/	.	.	.	.	.
!	!	!	!	!	!	!LO:TX:t=P:problem:kreska pseudotaktowa	!
!	!	!	!	!	!	!LO:SIC:v:t=custos cc	!
4F\	.	2A\	.	.	.	2dd\	-na
4G\	.	.	.	.	.	.	.
!	!	!	!	!LO:PB:g=original	!	!LO:LB:g=original	!
2A\	.	2F/	.	2r	.	2cc\	in
1G	.	2G/	.	2d\	O-	2b-\	ex-
=58-	=58-	=58-	=58-	=58-	=58-	=58-	=58-
!	!	!LO:TX:t=P:problem:kreska pseudotaktowa	!	!	!	!	!
.	.	1D	-sis	2d\	-san-	2.a\	-cel-
4F\	.	.	.	2d\	-na	.	.
!LO:TX:t=P:problem:kreska pseudotaktowa	!	!	!	!	!	!	!
4E\	.	.	.	.	.	4g\	.
2F\	.	2r	.	2c/	in	2a\	.
*	*	*	*ij	*	*	*	*
!	!	!	!	!LO:TX:t=P:problem:kreska pseudotaktowa	!	!	!
2G\	.	2d\	O-	2B-/	ex-	1b-	.
=59-	=59-	=59-	=59-	=59-	=59-	=59-	=59-
!LO:TX:t=P:problem:kreska pseudotaktowa	!	!	!	!	!	!	!
1D	-sis	2d\	-san-	1f	-cel-	.	.
.	.	2d\	-na	.	.	1a	.
1rA	.	2c\	in	2e\	.	.	.
!	!	!	!	!	!	!LO:TX:t=P:problem:kreska pseudotaktowa	!
.	.	2B-\	ex-	1d\	.	2g\	.
=60-	=60-	=60-	=60-	=60-	=60-	=60-	=60-
2rC	.	1A	-cel-	.	.	2.a\	.
2AA/	in	.	.	2c\	.	.	.
.	.	.	.	.	.	4g/	.
!	!	!LO:TX:t=P:problem:kreska pseudotaktowa	!	!	!	!	!
2BB-/	ex-	1D	-sis	2.d\	.	2f/	.
*	*	*	*Xij	*	*	*	*
2.GG/	-cel-	.	.	.	.	2.b-\	.
.	.	.	.	4c/	.	.	.
=61-	=61-	=61-	=61-	=61-	=61-	=61-	=61-
*	*	*	*	*lig	*	*	*
.	.	2r	.	1B-	.	.	.
4AA/	.	.	.	.	.	4a\	.
4BB-/	.	2d\	O-	.	.	1g	.
4C/	.	.	.	.	.	.	.
1D	.	2d\	-san-	1A	.	.	.
.	.	2d\	-na	.	.	2f/	.
*	*	*	*	*Xlig	*	*	*
=62-	=62-	=62-	=62-	=62-	=62-	=62-	=62-
!	!	!	!	!	!	!LO:TX:t=P:problem:kreska pseudotaktowa	!
2GG,</	-sis.	2B-\	in	4G/	.	0g	-sis.
.	.	.	.	4A/	.	.	.
!	!	!LO:TX:t=P:problem:kreska pseudotaktowa	!	!	!	!	!
2G\	O-	2G/	ex-	4B-/	.	.	.
.	.	.	.	4c/	.	.	.
*	*	*lig	*	*	*	*	*
2G\	-ſan-	1B-	-cel-	4d\	.	.	.
.	.	.	.	4c\	.	.	.
!LO:TX:t=P:problem:kreska pseudotaktowa	!	!	!	!	!	!	!
2G\	-na	.	.	4d\	.	.	.
.	.	.	.	4e\	.	.	.
=63-	=63-	=63-	=63-	=63-	=63-	=63-	=63-
!	!	!	!	!	!	!LO:TX:t=P:problem:kreska pseudotaktowa	!
2F\	in	1c	.	2f#X\	.	1rdd	.
2E\	ex-	.	.	1g	.	.	.
*	*	*Xlig	*	*	*	*	*
1D	-cel-	1.d	.	.	.	1a	O-
.	.	.	.	2f#\	.	.	.
=64-	=64-	=64-	=64-	=64-	=64-	=64-	=64-
!	!	!	!	!LO:TX:t=P:problem:kreska pseudotaktowa	!	!	!
2GG,</	-ſis	.	.	1g	-sis	1b-	-san-
2GG/	in	4c\	.	.	.	.	.
!	!	!LO:TX:t=P:problem:kreska pseudotaktowa	!	!	!	!	!
.	.	4B-\	.	.	.	.	.
2C/	.	2e\	.	2rf	.	2g\	-na
2BB-/	ex-	2d\	.	1fny	in	2b-\	in
=65-	=65-	=65-	=65-	=65-	=65-	=65-	=65-
*lig	*	*	*	*	*	*	*
1C	-cel-	2.c\	.	.	.	2a\	ex-
.	.	.	.	2e\	ex-	1g	-cel-
.	.	4B-\	.	.	.	.	.
1D	.	1A	.	1d	-cel-	.	.
!	!	!	!	!	!	!LO:TX:t=P:problem:# above	!
.	.	.	.	.	.	2f#X/	.
*Xlig	*	*	*	*	*	*	*
=66-	=66-	=66-	=66-	=66-	=66-	=66-	=66-
0GG;	-ſis.	0Bnl;	-ſis.	0dl;	-ſis.	0gl;	-ſis.
!LO:LB:g=original	!	!	!	!	!	!	!
=67||	=67||	=67||	=67||	=67||	=67||	=67||	=67||
*>D	*	*>D	*	*>D	*	*>D	*
*M2/1	*	*M2/1	*	*M2/1	*	*M2/1	*
*met(C|)	*	*met(C|)	*	*met(C|)	*	*met(C|)	*
!LO:TX:a:t=Benedict(us)\nTacet.	!	!	!	!LO:TX:a:t=à 3.	!	!LO:TX:t=P:problem:kreska pseudotaktowa	!
0ryy	.	00r	.	2.G/	Be-	1r	.
.	.	.	.	4A/	.	.	.
.	.	.	.	4B-/	.	2.d/	Be-
.	.	.	.	4c/	.	.	.
.	.	.	.	1d	.	.	.
.	.	.	.	.	.	4e/	.
=68-	=68-	=68-	=68-	=68-	=68-	=68-	=68-
0ryy	.	.	.	.	.	4fny/	.
.	.	.	.	.	.	4g/	.
!	!	!	!	!	!	!LO:TX:t=P:problem:kreska pseudotaktowa	!
.	.	.	.	2c\	-ne-	2a\	.
.	.	.	.	1e	-di-	2g\	-ne-
.	.	.	.	.	.	1b-	-di-
=69-	=69-	=69-	=69-	=69-	=69-	=69-	=69-
!	!	!LO:TX:t=P:problem:kreska pseudotaktowa	!	!LO:TX:t=P:problem:kreska pseudotaktowa	!	!	!
0ryy	.	0r	.	1d	-ctus	.	.
.	.	.	.	.	.	1a	-ctus
.	.	.	.	2c/	qui	.	.
!	!	!	!	!	!	!LO:TX:t=P:problem:kreska pseudotaktowa	!
.	.	.	.	2.B-/	ve-	2g\	qui
=70-	=70-	=70-	=70-	=70-	=70-	=70-	=70-
0ryy	.	2.G/	Be-	.	.	4b-\	ve-
.	.	.	.	4c/	.	4a\	.
!	!	!	!	!LO:TX:t=P:problem:kreska pseudotaktowa:między nutą a kropką	!	!	!
!	!	!	!	!LO:SIC:v:t=custos e	!	!	!
.	.	.	.	2.d\	.	4b-\	.
.	.	4A/	.	.	.	4cc\	.
.	.	4B-\	.	.	.	2.dd\	.
!	!	!	!	!LO:LB:g=original	!	!	!
.	.	4c\	.	4e\	.	.	.
.	.	1d	.	2.f\	.	.	.
.	.	.	.	.	.	8cc\L	.
!	!	!	!	!	!	!LO:TX:t=P:problem:kreska pseudotaktowa	!
.	.	.	.	.	.	8b-\J	.
!	!	!	!	!	!	!LO:LB:g=original	!
=71-	=71-	=71-	=71-	=71-	=71-	=71-	=71-
0ryy	.	.	.	.	.	4a\	.
.	.	.	.	4g\	.	4b-\	.
.	.	2c\	-ne-	2.a\	.	2.cc\	.
*	*	*lig	*	*	*	*	*
.	.	1e	-di-	.	.	.	.
.	.	.	.	4g\	.	4b-\	.
.	.	.	.	1g	.	4b-\	.
.	.	.	.	.	.	8a\L	.
!	!	!	!	!	!	!LO:TX:t=P:problem:kreska pseudotaktowa	!
.	.	.	.	.	.	8g\J	.
=72-	=72-	=72-	=72-	=72-	=72-	=72-	=72-
0ryy	.	1d	.	.	.	1a	.
.	.	.	.	2f\	.	.	.
*	*	*Xlig	*	*	*	*	*
!	!	!LO:TX:t=P:problem:kreska pseudotaktowa	!	!	!	!	!
.	.	1G	-ctus	2g,\	-nit	2.b-\	.
.	.	.	.	4G/	Be-	.	.
.	.	.	.	4A/	.	4a\	.
!	!	!LO:LB:g=original	!	!	!	!	!
=73-	=73-	=73-	=73-	=73-	=73-	=73-	=73-
0ryy	.	2rF	.	4B-/	.	2g/	.
.	.	.	.	4c/	.	.	.
.	.	4D/	Be-	1d	.	1f	.
.	.	4E/	.	.	.	.	.
.	.	4F/	.	.	.	.	.
.	.	4G/	.	.	.	.	.
!	!	!	!	!LO:TX:t=P:problem:kreska pseudotaktowa	!	!LO:TX:t=P:problem:kreska pseudotaktowa	!
.	.	2A\	.	2c\	-ne-	2e/	.
=74-	=74-	=74-	=74-	=74-	=74-	=74-	=74-
0ryy	.	2G/	-ne-	2e-X\	-di-	2g/	.
.	.	2B-\	-di-	1d	-ctus	4f/	.
.	.	.	.	.	.	8e/L	.
.	.	.	.	.	.	8d/J	.
.	.	1A	-ct(us)	.	.	1e	.
.	.	.	.	2c\	qui	.	.
=75-	=75-	=75-	=75-	=75-	=75-	=75-	=75-
!	!	!	!	!	!	!LO:TX:t=P:problem:kreska pseudotaktowa	!
0ryy	.	2F/	qui	2A/	ve-	1d	-nit
.	.	2.G/	ve-	2.B-/	.	.	.
!	!	!	!	!	!	!LO:TX:t=P:problem:kreska pseudotaktowa	!
.	.	.	.	.	.	1ra	.
.	.	4F/	.	4A/	.	.	.
.	.	4F/	.	1d\	.	.	.
.	.	8E/L	.	.	.	.	.
.	.	8D/J	.	.	.	.	.
=76-	=76-	=76-	=76-	=76-	=76-	=76-	=76-
0ryy	.	1E	.	.	.	2.g\	Be-
!	!	!	!	!LO:TX:t=P:problem:kreska pseudotaktowa	!	!	!
.	.	.	.	2c\	.	.	.
.	.	.	.	.	.	4a\	.
!	!	!LO:TX:t=P:problem:kreska pseudotaktowa	!	!	!	!	!
.	.	1D	-nit	2.d\	.	4b-\	.
.	.	.	.	.	.	4cc\	.
.	.	.	.	.	.	1dd	.
.	.	.	.	4eny\	.	.	.
=77-	=77-	=77-	=77-	=77-	=77-	=77-	=77-
0ryy	.	1rA	.	2f\	.	.	.
.	.	.	.	2e\	.	2cc\	-ne-
.	.	2.G/	Be-	2d\	.	1.b-	-di-
.	.	.	.	1g	.	.	.
.	.	4A/	.	.	.	.	.
=78-	=78-	=78-	=78-	=78-	=78-	=78-	=78-
0ryy	.	4B-\	.	.	.	.	.
.	.	4c\	.	.	.	.	.
!	!	!	!	!	!	!LO:TX:t=P:problem:kreska pseudotaktowa	!
.	.	1d	.	4f\	.	2a\	-ctus
!	!	!	!	!LO:TX:t=P:problem:kreska pseudotaktowa	!	!	!
.	.	.	.	4e\	.	.	.
.	.	.	.	2f\	.	2a\	qui
!	!	!LO:TX:t=P:problem:kreska pseudotaktowa	!	!	!	!	!
.	.	2G/	-ne-	2.g\	.	2.b-\	Ve-
=79-	=79-	=79-	=79-	=79-	=79-	=79-	=79-
0ryy	.	1B-	-di-	.	.	.	.
.	.	.	.	4f\	.	4a\	.
.	.	.	.	4f\	.	1dd	.
.	.	.	.	8e\L	.	.	.
.	.	.	.	8d\J	.	.	.
.	.	1A	.	1e	.	.	.
.	.	.	.	.	.	1cc	.
=80-	=80-	=80-	=80-	=80-	=80-	=80-	=80-
0ryy	.	2F,</	-ctus	2d,\	-nit	.	.
.	.	2G/	qui	2d\	in	2.b-\	.
.	.	4D/	ve-	1f	No-	.	.
.	.	4E/	.	.	.	4a\	.
.	.	4F/	.	.	.	1a	.
.	.	4G/	.	.	.	.	.
=81-	=81-	=81-	=81-	=81-	=81-	=81-	=81-
0ryy	.	2A\	.	2e\	-mi-	.	.
!	!	!LO:TX:t=P:problem:kreska pseudotaktowa	!	!LO:TX:t=P:problem:kreska pseudotaktowa	!	!	!
.	.	2B-\	.	2d\	-ne	2g\	.
!	!	!	!	!	!	!LO:TX:t=P:problem:kreska pseudotaktowa	!
.	.	4A/	.	2.f\	Do-	0a,<	-nit
.	.	4D/	.	.	.	.	.
.	.	1d	.	.	.	.	.
.	.	.	.	4e\	.	.	.
=82-	=82-	=82-	=82-	=82-	=82-	=82-	=82-
0ryy	.	.	.	4f\	.	.	.
.	.	.	.	4d\	.	.	.
.	.	2c\	.	1g	.	.	.
!	!	!LO:TX:t=P:problem:kreska pseudotaktowa	!	!	!	!	!
.	.	1d	-nit	.	.	1a	in
.	.	.	.	2f\	-mi-	.	.
=83-	=83-	=83-	=83-	=83-	=83-	=83-	=83-
!	!	!	!	!LO:TX:t=P:problem:kreska pseudotaktowa	!	!	!
0ryy	.	2rF	.	1g	-ni	1b-	No-
.	.	2G/	in	.	.	.	.
!	!	!	!	!LO:LB:g=original	!	!	!
.	.	2c\	No-	0r	.	2a\	-mi-
.	.	2B-\	-mi-	.	.	2g\	-ne
=84-	=84-	=84-	=84-	=84-	=84-	=84-	=84-
!	!	!LO:TX:t=P:problem:kreska pseudotaktowa	!	!	!	!	!
0ryy	.	1A	-ne	.	.	2.cc\	Do-
.	.	.	.	.	.	4b-\	.
!	!	!	!	!LO:TX:t=P:problem:kreska pseudotaktowa	!	!	!
.	.	2.d\	Do-	1r	.	4a/	.
.	.	.	.	.	.	4g/	.
.	.	.	.	.	.	4f/	.
!	!	!	!	!	!	!LO:TX:t=P:problem:kreska pseudotaktowa	!
.	.	4c\	.	.	.	4e/	.
!	!	!	!	!	!	!LO:LB:g=original	!
=85-	=85-	=85-	=85-	=85-	=85-	=85-	=85-
0ryy	.	2B-\	.	1G	in	2d/	.
.	.	4A/	.	.	.	1g	.
.	.	4G/	.	.	.	.	.
.	.	2A\	.	1.c	No-	.	.
.	.	2A\	-mi-	.	.	2f/	-mi-
=86-	=86-	=86-	=86-	=86-	=86-	=86-	=86-
!	!	!LO:TX:t=P:problem:kreska pseudotaktowa	!	!	!	!	!
0ryy	.	1G	-ni	.	-mi-	2g,\	-ni
.	.	.	.	2B-/	-ne	2g\	in
!	!	!LO:TX:t=P:problem:kreska pseudotaktowa	!	!	!	!	!
!	!	!LO:SIC:v:t=custos A	!	!	!	!	!
.	.	0r	.	4A/	.	1.cc	No-
.	.	.	.	4B-/	.	.	.
.	.	.	.	4c/	.	.	.
.	.	.	.	4d/	.	.	.
!	!	!LO:PB:g=original	!	!	!	!	!
=87-	=87-	=87-	=87-	=87-	=87-	=87-	=87-
0ryy	.	.	.	4e\	.	.	.
.	.	.	.	4f\	.	.	.
.	.	.	.	2g\	.	2b-\	-mi-
!	!	!	!	!	!	!LO:TX:t=P:problem:kreska pseudotaktowa	!
.	.	2rF	.	2f\	Do-	1a	-ne
.	.	2A\	in	2e\	-mi-	.	.
=88-	=88-	=88-	=88-	=88-	=88-	=88-	=88-
!	!	!	!	!LO:TX:t=P:problem:kreska pseudotaktowa	!	!	!
0ryy	.	1B-	No-	1d	-ni	2.dd\	Do-
.	.	.	.	.	.	8cc\L	.
.	.	.	.	.	.	8b-\J	.
.	.	2A/	-mi-	2r	.	2cc\	.
!	!	!LO:TX:t=P:problem:kreska pseudotaktowa	!	!	!	!	!
*	*	*	*	*	*ij	*	*
.	.	2G/	-ne	2d\	in	2b-\	-mi-
=89-	=89-	=89-	=89-	=89-	=89-	=89-	=89-
!	!	!	!	!	!	!LO:TX:t=P:problem:kreska pseudotaktowa	!
0ryy	.	2.d\	Do-	1f	No-	1a	-ni
.	.	8c\L	.	.	.	.	.
.	.	8B-\J	.	.	.	.	.
.	.	2c\	.	2e\	-mi-	2r	.
.	.	2B-\	.	2d\	-ne	2f/	in
=90-	=90-	=90-	=90-	=90-	=90-	=90-	=90-
0ryy	.	4G/	.	2.g\	Do-	1.b-	No-
.	.	4A/	.	.	.	.	.
.	.	4B-/	.	.	.	.	.
.	.	4c/	-mi-	4g\	-mi-	.	.
!	!	!	!	!LO:TX:t=P:problem:kreska pseudotaktowa	!	!	!
.	.	2d,\	-ni	1f	-ni	.	.
.	.	2D/	in	.	.	2a\	-mi-
*	*	*	*	*	*Xij	*	*
=91-	=91-	=91-	=91-	=91-	=91-	=91-	=91-
!	!	!	!	!	!	!LO:TX:t=P:problem:kreska pseudotaktowa	!
0ryy	.	1G	No-	2r	.	1b-	-ne
.	.	.	.	2d\	in	.	.
.	.	2F/	-mi-	1f	No-	4a\	Do-
.	.	.	.	.	.	4g\	.
!	!	!LO:TX:t=P:problem:kreska pseudotaktowa	!	!	!	!	!
.	.	2D/	-ne	.	.	4a\	.
.	.	.	.	.	.	4b-\	.
=92-	=92-	=92-	=92-	=92-	=92-	=92-	=92-
0ryy	.	2.A/	Do-	2e\	-mi-	2.cc\	.
!	!	!	!	!LO:TX:t=P:problem:kreska pseudotaktowa	!	!	!
.	.	.	.	2c\	-ne	.	.
.	.	4G/	.	.	.	4b-\	.
.	.	4F/	.	2.d\	Do-	4a\	.
.	.	4E/	.	.	.	4g\	.
.	.	2D/	.	.	.	2.a\	.
.	.	.	.	4c/	.	.	.
=93-	=93-	=93-	=93-	=93-	=93-	=93-	=93-
0ryy	.	2G/	.	2B-/	.	.	.
.	.	.	.	.	.	4g/	.
.	.	2E/	-mi-	4A/	.	1g	.
.	.	.	.	4G/	.	.	.
!	!	!LO:TX:t=P:problem:kreska pseudotaktowa	!	!	!	!	!
.	.	1D	-ni	2A/	.	.	.
.	.	.	.	2A/	.	2f#X/	-mi-
=94-	=94-	=94-	=94-	=94-	=94-	=94-	=94-
!	!	!	!	!	!	!LO:TX:b:t=Osanna da Capo	!
0ryy	.	2rF	.	4G/	.	[0gl;	-ni.
.	.	.	.	4A/	.	.	.
.	.	1G	Do-	4B-/	.	.	.
.	.	.	.	4c/	.	.	.
.	.	.	.	2d\	.	.	.
.	.	2C/	-mi-	1e	.	.	.
=95-	=95-	=95-	=95-	=95-	=95-	=95-	=95-
!LO:TX:b:t=Osanna &	!	!LO:TX:b:t=Osanna Da Capo	!	!	!	!	!
0ryy	.	0Gl;	-ni	.	.	0g]	.
.	.	.	.	4d\	.	.	.
.	.	.	.	4c\	-mi-	.	.
!	!	!	!	!LO:TX:b:t=Osanna Da Capo.	!	!	!
.	.	.	.	1dl;	-ni.	.	.
==	==	==	==	==	==	==	==
*-	*-	*-	*-	*-	*-	*-	*-
!!!system-decoration: [g1]
!!!RDF**kern: > = above
!!!RDF**kern: < = below
!!!RDF**kern: l = terminal long
!!!ENC: Andrzej Kubiczek
!!!END: 2021-03-17
!!!ENC: Katarzyna Serwa
!!!END: 2021-03-02
